icon-themes/breeze_svg/cmd/lc_numberformatincdecimals.svg

<svg viewBox="0 0 24 24" xmlns="http://www.w3.org/2000/svg"><path d="m8.5 4c-1.932997 0-3.5 1.7909-3.5 4v1 2c0 2.2091 1.567003 4 3.5 4s3.5-1.7909 3.5-4v-2-1c0-2.2091-1.567003-4-3.5-4zm8 0c-1.932997 0-3.5 1.7909-3.5 4v1 2c0 2.2091 1.567003 4 3.5 4s3.5-1.7909 3.5-4v-2-1c0-2.2091-1.567003-4-3.5-4zm-8 1c1.380712 0 2.5 1.3432 2.5 3v3c0 1.6569-1.119288 3-2.5 3-1.3807119 0-2.5-1.3431-2.5-3v-3c0-1.6568 1.1192881-3 2.5-3zm8 0c1.380712 0 2.5 1.3431 2.5 3v3c0 1.6569-1.119288 3-2.5 3s-2.5-1.3431-2.5-3v-3c0-1.6569 1.119288-3 2.5-3zm-12.5 9v1h1v-1z" fill="#4d4d4d"/><path d="m16 16v2h-2v1h2v2h1v-2h2v-1h-2v-2z" fill="#1d99f3"/></svg>

<svg xmlns="http://www.w3.org/2000/svg" viewBox="0 0 24 24">
 <path 
     style="fill:#4d4d4d" 
     d="M 8.5 4 C 6.567003 4 5 5.7909 5 8 L 5 9 L 5 11 C 5 13.2091 6.567003 15 8.5 15 C 10.432997 15 12 13.2091 12 11 L 12 9 L 12 8 C 12 5.7909 10.432997 4 8.5 4 z M 16.5 4 C 14.567003 4 13 5.7909 13 8 L 13 9 L 13 11 C 13 13.2091 14.567003 15 16.5 15 C 18.432997 15 20 13.2091 20 11 L 20 9 L 20 8 C 20 5.7909 18.432997 4 16.5 4 z M 8.5 5 C 9.880712 5 11 6.3432 11 8 L 11 11 C 11 12.6569 9.880712 14 8.5 14 C 7.1192881 14 6 12.6569 6 11 L 6 8 C 6 6.3432 7.1192881 5 8.5 5 z M 16.5 5 C 17.880712 5 19 6.3431 19 8 L 19 11 C 19 12.6569 17.880712 14 16.5 14 C 15.119288 14 14 12.6569 14 11 L 14 8 C 14 6.3431 15.119288 5 16.5 5 z M 4 14 L 4 15 L 5 15 L 5 14 L 4 14 z "
     />
 <path 
     style="fill:#1d99f3" 
     d="M 16 16 L 16 18 L 14 18 L 14 19 L 16 19 L 16 21 L 17 21 L 17 19 L 19 19 L 19 18 L 17 18 L 17 16 L 16 16 z "
     />
 </svg>
